X: 3247
T: ON WI' THE TARTAN
%R: jig
B: James Kerr "Merry Melodies" v.3 p.28 #247
Z: 2016 John Chambers <jc:trillian.mit.edu>
M: 6/8
L: 1/8
K: D
A/d/ |\
B>AF E>DE | F>EF A2 A/d/ |\
B>AF E>DE | Fdc B2 ::\
d/e/ |\
f>ed e>dc | dBA F2 A/d/ |\
B>AF E>DE | Fdc B2 :|

%%sep 1 1 500
%%sep 1 1 500

